docs/images/info-alt/3.svg

<svg width="64" height="94" viewBox="0 0 64 94" fill="none" xmlns="http://www.w3.org/2000/svg">
<path d="M63.2469 52.0139C62.4951 49.5608 59.9134 44.5607 51.3673 44.4865C51.4316 43.7892 51.4959 43.0819 51.5602 42.3599L51.9509 37.795H0.292969L0.61444 42.2956C3.29501 79.9176 12.4644 90.8624 13.5029 91.9851L14.7493 93.3402H36.6934L37.9347 92.0395C38.3897 91.5597 40.3977 89.2699 42.7914 83.7604C56.0261 77.054 66.1797 61.6135 63.2469 52.0139ZM32.7319 84.9374H18.7899C16.6781 81.3815 11.5791 70.5652 9.36339 46.2076H42.742C40.1554 70.7136 34.8832 81.4507 32.7319 84.9374ZM47.2327 70.1646C48.4097 65.4118 49.5126 59.7094 50.4127 52.9091C52.4702 52.7953 54.76 53.0179 55.2002 54.4719C56.1844 57.6965 52.8411 64.5611 47.2277 70.1646H47.2327Z" fill="#323E48"/>
<path d="M11.9846 20.3515C14.6949 23.3881 14.4674 27.0776 11.3862 29.9758L15.1152 33.9373C20.328 29.0312 20.7088 21.9539 16.045 16.7263L14.2646 14.7332C11.8461 12.0229 11.7571 8.75874 14.0272 5.99904L15.3526 4.38674L11.1488 0.934633L9.82334 2.54693C5.82227 7.40856 5.97559 13.6154 10.2042 18.3584L11.9846 20.3515Z" fill="#323E48"/>
<path d="M24.8435 20.3515C27.5537 23.3881 27.3262 27.0776 24.245 29.9758L27.9741 33.9373C33.1869 29.0312 33.5677 21.9539 28.9039 16.7263L27.1234 14.7332C24.705 12.0229 24.6159 8.75874 26.886 5.99904L28.2115 4.38674L24.0076 0.934633L22.6822 2.54693C18.6811 7.40856 18.8344 13.6154 23.063 18.3584L24.8435 20.3515Z" fill="#323E48"/>
<path d="M37.7023 20.3515C40.4125 23.3881 40.185 27.0776 37.1039 29.9758L40.8329 33.9373C46.0457 29.0312 46.4265 21.9539 41.7627 16.7263L39.9823 14.7332C37.5638 12.0229 37.4748 8.75874 39.7449 5.99904L41.0703 4.38674L36.8665 0.929688L35.541 2.54199C31.5399 7.40362 31.6933 13.6105 35.9218 18.3534L37.7023 20.3465V20.3515Z" fill="#323E48"/>
</svg>

<svg xmlns="http://www.w3.org/2000/svg" width="64" height="94" fill="none"><path fill="#323E48" d="M63.247 52.014c-.752-2.453-3.334-7.453-11.88-7.528q.097-1.044.193-2.126l.39-4.565H.294l.321 4.5c2.681 37.623 11.85 48.567 12.889 49.69l1.246 1.355h21.944l1.242-1.3c.455-.48 2.463-2.77 4.856-8.28 13.235-6.706 23.389-22.147 20.456-31.746M32.732 84.937H18.79c-2.112-3.555-7.21-14.372-9.427-38.73h33.379c-2.587 24.507-7.859 35.244-10.01 38.73m14.5-14.772c1.178-4.753 2.28-10.456 3.18-17.256 2.058-.114 4.348.109 4.788 1.563.984 3.224-2.359 10.09-7.972 15.693zM11.985 20.352c2.71 3.036 2.482 6.726-.599 9.624l3.73 3.961c5.212-4.906 5.593-11.983.929-17.21l-1.78-1.994c-2.419-2.71-2.508-5.974-.238-8.734l1.326-1.612L11.149.935 9.823 2.547c-4 4.862-3.847 11.068.381 15.811zm12.859 0c2.71 3.036 2.482 6.726-.599 9.624l3.73 3.961c5.212-4.906 5.593-11.983.929-17.21l-1.78-1.994c-2.419-2.71-2.508-5.974-.238-8.734l1.326-1.612L24.008.935l-1.326 1.612c-4 4.862-3.848 11.068.381 15.811zm12.858 0c2.71 3.036 2.483 6.726-.598 9.624l3.729 3.961c5.213-4.906 5.593-11.983.93-17.21l-1.78-1.994c-2.42-2.71-2.508-5.974-.238-8.734l1.325-1.612L36.867.93 35.54 2.542c-4.001 4.862-3.848 11.069.38 15.811l1.781 1.993z"/></svg>
